X: 4209
T: The BOYS OF TRALEE
R: Jig
%R: jig
B: James Kerr "Merry Melodies" v.4 p.23 #209
Z: 2016 John Chambers <jc:trillian.mit.edu>
M: 6/8
L: 1/8
K: G
uD |\
DEF GAB | egd efg | dBG AGF | GAB AGE |\
DEF GAB | egd efg | dBG AGF | GBA G2 :|
|: g |\
gfe agf | gfg edB | egf gdB | AcA BGE |\
DEF GAB | egd efg | dBG AGF | GBA G2 :|

%%sep 1 1 500
%%sep 1 1 500

